Newaita-dark/.DP/22/youtube-indicator-downloading-light.svg

<svg xmlns="http://www.w3.org/2000/svg" xmlns:xlink="http://www.w3.org/1999/xlink" width="22px" height="22px" viewBox="0 0 22 22" version="1.1">
<g id="surface1">
<path style=" stroke:none;fill-rule:nonzero;fill:rgb(93.333334%,93.333334%,93.333334%);fill-opacity:1;" d="M 10.890625 4 C 10.890625 4 4.933594 4 3.445312 4.390625 C 2.644531 4.609375 1.988281 5.269531 1.765625 6.082031 C 1.375 7.574219 1.375 10.660156 1.375 10.660156 C 1.375 10.660156 1.375 13.765625 1.765625 15.238281 C 1.988281 16.050781 2.628906 16.695312 3.445312 16.914062 C 4.199219 17.121094 6.078125 17.222656 7.757812 17.273438 L 6.707031 16.074219 C 6.347656 15.660156 6.292969 15.0625 6.492188 14.617188 C 6.695312 14.175781 7.179688 13.820312 7.730469 13.820312 L 9.105469 13.820312 L 9.105469 7.449219 L 9.105469 7.460938 C 9.089844 6.472656 9.898438 5.640625 10.886719 5.625 C 11.898438 5.609375 12.742188 6.453125 12.726562 7.460938 L 12.726562 7.449219 L 12.726562 13.820312 L 14.097656 13.820312 C 14.648438 13.820312 15.132812 14.175781 15.335938 14.617188 C 15.539062 15.0625 15.484375 15.660156 15.121094 16.074219 L 14.074219 17.273438 C 15.746094 17.222656 17.59375 17.125 18.332031 16.929688 C 19.148438 16.710938 19.792969 16.070312 20.011719 15.253906 C 20.402344 13.765625 20.402344 10.675781 20.402344 10.675781 C 20.402344 10.675781 20.417969 7.574219 20.011719 6.082031 C 19.792969 5.269531 19.148438 4.625 18.332031 4.40625 C 16.84375 4 10.890625 4 10.890625 4 Z M 10.914062 7.433594 C 10.914062 7.441406 10.914062 7.445312 10.914062 7.449219 C 10.914062 7.445312 10.914062 7.441406 10.914062 7.433594 Z M 10.914062 14.726562 C 10.914062 15.226562 10.507812 15.632812 10.011719 15.632812 L 8.726562 15.632812 L 10.203125 17.316406 C 10.621094 17.320312 10.890625 17.320312 10.890625 17.320312 C 10.890625 17.320312 11.175781 17.320312 11.628906 17.316406 L 13.105469 15.632812 L 11.820312 15.632812 C 11.320312 15.632812 10.914062 15.226562 10.914062 14.726562 Z M 10.914062 14.726562 "/>
<path style=" stroke:none;fill-rule:nonzero;fill:rgb(93.333334%,93.333334%,93.333334%);fill-opacity:1;" d="M 10.902344 6.53125 C 10.402344 6.539062 10.003906 6.949219 10.011719 7.449219 L 10.011719 14.726562 L 7.730469 14.726562 C 7.34375 14.726562 7.132812 15.1875 7.390625 15.480469 L 10.574219 19.117188 C 10.753906 19.324219 11.074219 19.324219 11.257812 19.117188 L 14.441406 15.480469 C 14.695312 15.1875 14.488281 14.726562 14.097656 14.726562 L 11.820312 14.726562 L 11.820312 7.449219 C 11.824219 7.203125 11.730469 6.96875 11.554688 6.796875 C 11.382812 6.621094 11.148438 6.527344 10.902344 6.53125 Z M 10.902344 6.53125 "/>
</g>
</svg>

<svg xmlns="http://www.w3.org/2000/svg" width="22" height="22"><g fill="#bdbdbd"><path d="M10.89 4s-5.956 0-7.445.39a2.44 2.44 0 0 0-1.68 1.696c-.39 1.488-.39 4.574-.39 4.574s0 3.106.39 4.578a2.392 2.392 0 0 0 1.68 1.676c.754.207 2.63.309 4.309.36l-1.047-1.2a1.401 1.401 0 0 1-.215-1.457 1.39 1.39 0 0 1 1.238-.797h1.375V7.45v.01a1.823 1.823 0 0 1 1.782-1.835 1.827 1.827 0 0 1 1.84 1.836v-.012 6.371h1.37c.551 0 1.036.352 1.239.797a1.385 1.385 0 0 1-.215 1.457l-1.047 1.2c1.668-.051 3.52-.149 4.258-.344a2.385 2.385 0 0 0 1.68-1.676c.39-1.488.39-4.578.39-4.578s.016-3.102-.39-4.59a2.384 2.384 0 0 0-1.68-1.68C16.844 4 10.891 4 10.891 4zm.024 3.438v0zm0 7.289c0 .5-.402.906-.902.906H8.727l1.476 1.683c.418.004.688.004.688.004s.285 0 .738-.004l1.476-1.683H11.82a.907.907 0 0 1-.906-.906zm0 0"/><path d="M10.902 6.531a.904.904 0 0 0-.89.918v7.278H7.73c-.39 0-.597.46-.34.753l3.184 3.637c.18.207.5.207.684 0l3.183-3.637a.456.456 0 0 0-.343-.753H11.82V7.449a.903.903 0 0 0-.265-.652.893.893 0 0 0-.653-.266zm0 0"/></g></svg>
